icons/glyphs/glyph-qrc-code.svg

<?xml version="1.0" encoding="UTF-8" standalone="no"?><svg height="16" viewBox="0 0 4.2333333 4.2333333" width="16" xmlns="http://www.w3.org/2000/svg"><sodipodi:namedview/><metadata><rdf:RDF><cc:Work><dc:format>image/svg+xml</dc:format><dc:type/><dc:title/></cc:Work></rdf:RDF></metadata><path d="m .00000001 0v1.5119048h1.51190479v-1.5119048zm2.11666669 0v .30238092h.302381v-.30238092zm.6047619 0v1.5119048h1.5119047v-1.5119048zm-2.41904766.30238092h.90714286v.90714288h-.90714286zm2.72142856 0h .9071429v.90714288h-.9071429zm-2.41904764.30238092v.302381h.30238103v-.302381zm1.20952384 0v .302381.30238096h.302381v-.30238096h.302381v-.302381h-.302381zm.302381.60476196v.302381h-.302381v.3023809h-.3023809v.3023809h.3023809v.3023811h.302381.302381v-.3023811h-.302381v-.3023809h.302381v-.3023809-.302381zm.302381.6047619v.3023809h.3023809v.3023811h.3023809v-.3023811h.302381v-.3023809h-.302381-.3023809zm.9071428-1.20952386v.302381h.302381v-.302381zm-3.02380956 1.20952386v.3023809h.30238092v-.3023809zm.30238092.3023809v.3023811h.30238103.30238091v-.3023811-.3023809h-.30238091v.3023809zm-.30238092 0h-.30238093v.3023811h.30238093zm3.32619056-.3023809v.3023809h.3023809v-.3023809zm0 .604762v.3023809h.3023809v-.3023809zm.3023809.3023809v.3023809h.3023809v-.3023809zm-3.93095239 0v1.5119047h1.51190479v-1.5119047zm2.41904768 0v .3023809h.30238091v-.3023809zm0 .3023809h-.302381v.3023809h-.302381v.3023811h.302381v.3023809h.302381v-.3023809-.3023811zm.60476181-.3023809v.3023809h.302381v-.3023809zm.302381.3023809v.3023809h.302381v-.3023809zm.302381.3023809v.3023811h.3023809v-.3023811zm0 .3023811h-.302381v.3023809.3023809h.302381v-.3023809zm-.302381 0v-.3023811h-.302381-.3023809v.3023811.3023809h.3023809v-.3023809zm-3.02380956-.604762h.90714286v.9071429h-.90714286zm.30238092.3023809v.3023811h.30238103v-.3023811zm3.32619054.604762v.3023809h.3023809v-.3023809z" fill="#d0d0d0" stroke-width=".302381"/></svg>

<?xml version="1.0" encoding="UTF-8" standalone="no"?>
<!-- Created with Inkscape (http://www.inkscape.org/) -->

<svg
   xmlns:dc="http://purl.org/dc/elements/1.1/"
   xmlns:cc="http://creativecommons.org/ns#"
   xmlns:rdf="http://www.w3.org/1999/02/22-rdf-syntax-ns#"
   xmlns:svg="http://www.w3.org/2000/svg"
   xmlns="http://www.w3.org/2000/svg"
   xmlns:sodipodi="http://sodipodi.sourceforge.net/DTD/sodipodi-0.dtd"
   xmlns:inkscape="http://www.inkscape.org/namespaces/inkscape"
   width="16"
   height="16"
   viewBox="0 0 4.2333333 4.2333333"
   version="1.1"
   id="svg8"
   inkscape:version="0.92+devel (0526f3edb8, 2017-07-23, custom)"
   sodipodi:docname="glyph-qrc-code.svg">
  <defs
     id="defs2" />
  <sodipodi:namedview
     id="base"
     pagecolor="#002466"
     bordercolor="#ffffff"
     borderopacity="0.38039216"
     inkscape:pageopacity="1"
     inkscape:pageshadow="2"
     inkscape:zoom="27.375"
     inkscape:cx="8"
     inkscape:cy="8"
     inkscape:document-units="px"
     inkscape:current-layer="svg8"
     inkscape:document-rotation="0"
     showgrid="false"
     inkscape:showpageshadow="false"
     borderlayer="true"
     inkscape:window-width="1920"
     inkscape:window-height="1051"
     inkscape:window-x="0"
     inkscape:window-y="0"
     inkscape:window-maximized="1"
     units="px" />
  <metadata
     id="metadata5">
    <rdf:RDF>
      <cc:Work
         rdf:about="">
        <dc:format>image/svg+xml</dc:format>
        <dc:type
           rdf:resource="http://purl.org/dc/dcmitype/StillImage" />
        <dc:title></dc:title>
      </cc:Work>
    </rdf:RDF>
  </metadata>
  <path
     style="fill:#d0d0d0;stroke-width:0.30238095"
     id="rect4333"
     d="M 1.5e-8,0 V 1.5119048 H 1.5119048 V 0 Z M 2.1166667,0 v 0.30238092 h 0.302381 V 0 Z M 2.7214286,0 V 1.5119048 H 4.2333333 V 0 Z M 0.30238094,0.30238092 H 1.2095238 V 1.2095238 H 0.30238094 Z m 2.72142856,0 H 3.9309524 V 1.2095238 H 3.0238095 Z M 0.60476186,0.60476184 v 0.302381 h 0.30238103 v -0.302381 z m 1.20952384,0 v 0.302381 0.30238096 h 0.302381 V 0.90714284 h 0.302381 v -0.302381 h -0.302381 z m 0.302381,0.60476196 v 0.302381 H 1.8142857 V 1.8142857 H 1.5119048 v 0.3023809 h 0.3023809 v 0.3023811 h 0.302381 0.302381 V 2.1166666 H 2.1166667 V 1.8142857 h 0.302381 V 1.5119048 1.2095238 Z m 0.302381,0.6047619 V 2.1166666 H 2.7214286 V 2.4190477 H 3.0238095 V 2.1166666 h 0.302381 V 1.8142857 H 3.0238095 2.7214286 Z M 3.3261905,0.60476184 v 0.302381 h 0.302381 v -0.302381 z M 0.30238094,1.8142857 V 2.1166666 H 0.60476186 V 1.8142857 Z M 0.60476186,2.1166666 V 2.4190477 H 0.90714289 1.2095238 V 2.1166666 1.8142857 H 0.90714289 v 0.3023809 z m -0.30238092,0 H 1.5e-8 V 2.4190477 H 0.30238094 Z M 3.6285715,1.8142857 V 2.1166666 H 3.9309524 V 1.8142857 Z m 0,0.604762 V 2.7214286 H 3.9309524 V 2.4190477 Z M 3.9309524,2.7214286 V 3.0238095 H 4.2333333 V 2.7214286 Z m -3.930952385,0 V 4.2333333 H 1.5119048 V 2.7214286 Z m 2.419047685,0 V 3.0238095 H 2.7214286 V 2.7214286 Z m 0,0.3023809 h -0.302381 v 0.3023809 h -0.302381 v 0.3023811 h 0.302381 v 0.3023809 h 0.302381 V 3.6285715 3.3261904 Z M 3.0238095,2.7214286 v 0.3023809 h 0.302381 V 2.7214286 Z m 0.302381,0.3023809 v 0.3023809 h 0.302381 V 3.0238095 Z m 0.302381,0.3023809 V 3.6285715 H 3.9309524 V 3.3261904 Z m 0,0.3023811 h -0.302381 v 0.3023809 0.3023809 h 0.302381 V 3.9309524 Z m -0.302381,0 V 3.3261904 H 3.0238095 2.7214286 V 3.6285715 3.9309524 H 3.0238095 V 3.6285715 Z M 0.30238094,3.0238095 H 1.2095238 V 3.9309524 H 0.30238094 Z M 0.60476186,3.3261904 V 3.6285715 H 0.90714289 V 3.3261904 Z M 3.9309524,3.9309524 V 4.2333333 H 4.2333333 V 3.9309524 Z"
     inkscape:connector-curvature="0" />
</svg>
